X:516
T:Polska # 516
T: efter fadern
Q: 110
M:3/4
L:1/16
K: A
A2AB c2B2 A2B2| (cB)cd e4 c3e| e3g g3a a3f|1(ab)ag e8:|2 (ab)ag e6 e2||
|: e3g g2a2 a2f2| (ab)ag e2e2 c3c| c3e (=ga)gf d2e2| (=gf)ef d2d2 B4|
(AB)cd e2ec A3c|1 (Bc)BA G2A2 A2e2:|2 (Bc)BA G2A2 A4||

